!!!OTL: KUCKUK KUCKUK RUFT AUS DEM WALD
!!!ARE: Europa, Mitteleuropa, Deutschland
!!!SCT: F0776
!!!YEM: Copyright 1995, estate of Helmut Schaffrath.
**kern
*ICvox
*Ivox
*M3/4
*k[f#]
*G:
=1
{2dd
8b
8r
=2
2dd
8b
8r}
=3
{8dd
8cc
4b
4a
=4
2g
4r}
=5
{4a
4a
4b
=6
2cc
8a
8r}
=7
{4b
4b
4cc
=8
2dd
8b
8r}
=9
{2dd
8b
8r
=10
2dd
8b
8r}
=11
{8dd
8cc
4b
4a
=12
2g
4r}
==
!!!AGN: Geselligkeits -, Jahreszeiten - Lied, Fruehling
!!!ONB: ESAC (Essen Associative Code) Database: FINK
!!!AMT: simple triple
!!!AIN: vox
!!!EED: Helmut Schaffrath
!!!EEV: 1.0
*-
